T: New Custom House, The
M: 4/4
L: 1/8
K: Ddor
A2 DE FGAB | cAGE CEGE | (3AAA DE FGAB | (3ccc eG dGEG |AD (3DDD FGAB | c2 GE CEFG | AdDd FGAB | (3cdc GE D2 :|||: FG |Ad (3dd^c (3ded =cd | ed^cd ef (3gfe | Add^c d2 =cd | eAag (3efe c_B |Ad-d^c d2 =cd | ed^cd efg_b | a2 _ba gec_B | Adce d2 :|
